X:1
T:D minor Daniel Belknap, 1802
T:Isaac Watts, 1709 (Hymn 5, Book 1)   86. 86. (C. M.)
T:Dover
T:Transcribed from The Village Compilation, 1806.
%%score [ 1 2 3 4 ]
L:1/8
M:4/4
K:F
V:1 treble nm="Treble" snm="Tr."
V:2 treble nm="Counter" snm="C."
V:3 treble-8 nm="Tenor" snm="T."
V:4 bass nm="Bass" snm="B."
V:1
 A4 A2 A2 | A6 B2 | A4 d4 | ^c6 d2 | (d2 f2) (c3 B) | A4 A4 | A8 | d4 A2 B2 | c2 B2 A>B c2 | d8 | %10
w: 1.~Na- ked as|from the|earth we|came, And|crept * to *|life at|first;|We to the|earth re- turn * a-|gain,|
 d4 d2 A2 | A2 G2 F2 G2 | A2 A2 B4 | A4 A4- | A4 |] %15
w: And min- gle|with our dust, And|min- gle with|our dust.||
V:2
 D4 D2 F2 | E6 E2 | F4 F4 | E6 FE | D4 F4 | E4 E4 | F8 | F4 C2 DE | F2 F2 E2 E2 | D8 | F4 F2 E2 | %11
w: 2.~The dear de-|lights we|here en-|joy, And *|fond- ly|call our|own,|Are but short *|fa- vors bor- rowed|now,|To be re-|
 F2 D2 D2 D2 | A2 A2 G4 | E4 D4- | D4 |] %15
w: payed a- non, To|be re- payed|a- non.||
V:3
 A4 d2 d2 | c6 d2 | (A2 G2) (F3 G) | A6 A2 | B4 (A3 d) | ^c4 c4 | d8 | A4 c2 B2 | A2 d2 c2 cB | %9
w: 3.~'Tis God that|lifts our|com- * forts *|high, Or|sinks them *|in the|grave;|He gives, and|bles- sed be his *|
 A8 | A4 A2 c2 | c2 B2 A2 B2 | A2 d2 d4 | ^c4 d4- | d4 |] %15
w: name!|He takes but|what he gives, He|takes but what|he gives.||
V:4
 D,4 D,2 D,2 | A,6 G,2 | (F,2 E,2) D,4 | A,,6 D,2 | G,4 (F,3 G,) | A,4 A,,4 | D,8 | D,4 A,2 G,2 | %8
w: 4.~Peace, all our|an- gry|pas- * sions,|then; Let|each re- *|bel- lious|sigh|Be si- lent|
w: 5.~If smi- ling|mer- cy|crown * our|lives, Its|prai- ses *|shall be|spread;|And we'll a-|
 F,2 D,2 A,,2 A,,2 | D,8 | D,4 D,2 C,2 | %11
w: at his sove- reign|will,|And eve- ry|
w: dore the jus- tice,|too,|That strikes our|
"^_________________________________________________\nEdited by B. C. Johnston, 2015\nMeasure 7, All parts, in original is half-note \nfermata\n followed by half note; the first half note replaced with a whole note, and the rest of\n   the piece moved right two beats." F,2 G,2 A,2 G,2 | %12
w: mur- mur die, And|
w: com- forts dead, That|
 F,2 D,2 G,4 | A,4 D,4- | D,4 |] %15
w: eve- ry mur-|mur die.||
w: strikes our com-|forts dead.||

